icons/donut-chart-line.svg

<svg xmlns="http://www.w3.org/2000/svg" width="24" height="24" fill="none"><g clip-path="url(#a)"><g><path fill="#121212" d="M11 2.04995V4.06195C7.054 4.55395 4 7.91995 4 12C4 16.418 7.582 20 12 20C13.849 20 15.55 19.3729 16.906 18.32L18.329 19.743C16.605 21.153 14.4 22 12 22C6.477 22 2 17.523 2 12C2 6.81495 5.947 2.55095 11 2.04995ZM21.95 13C21.75 15.011 20.956 16.8469 19.743 18.3279L18.32 16.906C19.18 15.799 19.756 14.461 19.938 13H21.951H21.95ZM13.002 2.04995C17.726 2.51895 21.482 6.27595 21.952 11H19.939C19.488 7.38195 16.62 4.51395 13.002 4.06195V2.04895V2.04995Z"/></g></g><defs><clipPath id="a"><rect width="24" height="24" fill="white"/></clipPath></defs></svg>

<svg width="24" height="24" fill="none" xmlns="http://www.w3.org/2000/svg"><g clip-path="url(#a)"><path d="M11 2.05v2.012a8.001 8.001 0 1 0 5.906 14.258l1.423 1.423A9.966 9.966 0 0 1 12 22C6.477 22 2 17.523 2 12c0-5.185 3.947-9.45 9-9.95ZM21.95 13a9.947 9.947 0 0 1-2.207 5.328l-1.423-1.422A7.962 7.962 0 0 0 19.938 13h2.013-.001ZM13.002 2.05a10.004 10.004 0 0 1 8.95 8.95h-2.013a8.005 8.005 0 0 0-6.937-6.938V2.049v.001Z" /></g><defs><clipPath id="a"><path fill="#fff" d="M0 0h24v24H0z"/></clipPath></defs></svg>
